svg/file_question_outline.svg

<svg xmlns="http://www.w3.org/2000/svg" viewBox="0 0 24 24"><path d="M14 2H6a2 2 0 0 0-2 2v16c0 1.11.89 2 2 2h12c1.11 0 2-.89 2-2V8zm4 18H6V4h7v5h5zm-3-7c0 1.89-2.25 2.07-2.25 3.76h-1.5c0-2.44 2.25-2.26 2.25-3.76 0-.82-.67-1.5-1.5-1.5s-1.5.68-1.5 1.5H9c0-1.65 1.34-3 3-3s3 1.35 3 3m-2.25 4.5V19h-1.5v-1.5z"/></svg>

<?xml version="1.0" encoding="UTF-8"?><!DOCTYPE svg PUBLIC "-//W3C//DTD SVG 1.1//EN" "http://www.w3.org/Graphics/SVG/1.1/DTD/svg11.dtd"><svg xmlns="http://www.w3.org/2000/svg" xmlns:xlink="http://www.w3.org/1999/xlink" version="1.1" id="mdi-file-question-outline" width="24" height="24" viewBox="0 0 24 24"><path d="M14 2H6C4.89 2 4 2.9 4 4V20C4 21.11 4.89 22 6 22H18C19.11 22 20 21.11 20 20V8L14 2M18 20H6V4H13V9H18V20M15 13C15 14.89 12.75 15.07 12.75 16.76H11.25C11.25 14.32 13.5 14.5 13.5 13C13.5 12.18 12.83 11.5 12 11.5S10.5 12.18 10.5 13H9C9 11.35 10.34 10 12 10S15 11.35 15 13M12.75 17.5V19H11.25V17.5H12.75Z" /></svg>
